X:1
T:Knees up, Mother Brown
M:4/4
L:1/4
K:Bb
 F2| D F F F| F4| E G G G| G4| A/2A/2 A A A| G _G F2| A A A A| G _G F2|\
 D F F F| F F2 B| c G G G| G3 ^G| A A G F| A A/2A/2 G F| F F G A| B2||\
